svg/u1faac.svg

<svg viewBox="0 0 128 128" xmlns="http://www.w3.org/2000/svg" xmlns:xlink="http://www.w3.org/1999/xlink">
  <g>
    <path d="M114.51,61.13c-0.6-1.45-2.25-3.15-4.37-4c-3.78-1.52-9.67-2.73-16.65,2.91L92.7,27.88 c0-3.45-1.19-6.5-3.55-8.34c-4.88-3.79-9.46-2.46-12.17-0.96c-1.57,0.87-2.63,2.46-2.63,2.46s0.1-2.75,0.1-4.95S74.29,4,63.99,4 s-10.44,9.36-10.44,11.76l0.08,4.93c0,0-1.16-1.58-3.15-2.5c-2.8-1.28-7.11-2.17-11.65,1.35c-2.36,1.84-3.55,4.89-3.55,8.34 l-0.78,32.16c-6.98-5.64-12.87-4.42-16.65-2.91c-2.12,0.85-3.93,2.85-4.37,4c-0.48,1.24-0.58,2.55,0.72,3.14 c3.28,1.49,9.34,5.98,12.36,17.45C28.98,90.98,31.28,124,63.99,124S99,90.98,101.43,81.72c3.02-11.46,9.12-15.87,12.36-17.45 C114.99,63.69,115.11,62.58,114.51,61.13z" fill="#BDBDBD"/>
    <path d="M108.59,66.46c-3.14,2.27-5.1,6.09-6.84,12.62c-2.48,9.24-5.08,40.79-37.76,40.81 c-32.68-0.02-35.28-31.57-37.76-40.81c-1.75-6.53-3.7-10.35-6.84-12.62c-2.99-2.16-4.26-1.37-6.16-3.19c0,0,0.17,2.2,0.17,3.32 c0,1.11,1.94,1.8,3.44,2.89c2.31,1.68,7.44,5.96,9.73,15.17s4.73,39.33,37.41,39.35c32.68-0.02,35.24-30.52,37.41-39.35 c2.17-8.83,7.42-13.48,9.73-15.17c1.51-1.1,3.44-1.78,3.44-2.89c0-1.11,0.17-3.32,0.17-3.32C113.2,64.68,111.58,64.31,108.59,66.46 z" fill="#546E7A"/>
    <path d="M77.34,62.29c0,0-3.93,0-3.93,0c0-4.74,0-30.49,0-36.11c0-2.66,0.49-4.87,1.72-6.21 c2.55-2.77,6.9-2.88,6.9-2.88s-1.49,0.85-2.06,1.41c-1.47,1.44-2.08,3.34-2.45,5.25C77.14,25.72,77.34,57.72,77.34,62.29z" fill="#78909C"/>
    <path d="M50.86,62.29c0,0,3.93,0,3.93,0c0-4.74,0-30.49,0-36.11c0-2.66-0.49-4.87-1.72-6.21 c-2.55-2.77-6.9-2.88-6.9-2.88s1.49,0.85,2.06,1.41c1.47,1.44,2.08,3.34,2.45,5.25C51.05,25.72,50.86,57.72,50.86,62.29z" fill="#78909C"/>
    <g>
      <g>
        <g>
          <path d="M63.99,102.86c-14.31,0-21.57-13.24-21.87-13.81l-0.37-0.69l0.33-0.7 c0.27-0.57,6.75-13.88,21.91-13.88S85.63,87.1,85.89,87.67l0.33,0.7l-0.37,0.69C85.56,89.62,78.3,102.86,63.99,102.86z" fill="#F5F5F5"/>
          <path d="M63.99,75.33c14.36,0,20.51,12.99,20.51,12.99s-6.96,12.99-20.51,12.99S43.47,88.33,43.47,88.33 S49.63,75.33,63.99,75.33 M63.99,72.25c-16.12,0-23.01,14.15-23.3,14.76l-0.67,1.41l0.73,1.37c0.32,0.6,8.01,14.62,23.23,14.62 S86.9,90.38,87.22,89.79l0.73-1.37l-0.67-1.41C87,86.41,80.11,72.25,63.99,72.25L63.99,72.25z" fill="#78909C"/>
        </g>
        <g>
          <circle cx="63.99" cy="88.33" fill="#5AC7F0" r="11.87"/>
          <circle cx="63.99" cy="88.33" fill="#212121" r="5.53"/>
        </g>
        <path d="M59.35,79.63c0.62,0.21,0.93,0.96,0.84,1.61c-0.09,0.65-0.48,1.22-0.88,1.74 c-0.43,0.56-0.89,1.11-1.38,1.62c-0.26,0.28-0.59,0.58-0.98,0.53c-0.41-0.05-0.66-0.46-0.8-0.84 C55.56,82.53,56.9,78.79,59.35,79.63z" fill="#FFFFFF"/>
      </g>
      <path d="M63.99,101.32c-13.55,0-20.51-12.99-20.51-12.99h-3.41l-0.04,0.09l0.73,1.37 c0.32,0.6,8.01,14.62,23.23,14.62S86.9,90.38,87.22,89.79l0.73-1.37l-0.04-0.09H84.5C84.5,88.33,77.54,101.32,63.99,101.32z" fill="#546E7A"/>
    </g>
    <path d="M85.24,64.75c-3.32-2.53-10.29-6.5-21.25-6.5c-10.86,0-18.21,4.55-21.85,7.52 c-0.98-3.17-2.72-6.07-7.58-8.53l-0.07,2.81c3.56,4.24,4.54,9.65,4.55,9.72l0.53,4.42l2.91-3.37c0.07-0.09,7.63-8.63,21.51-8.63 c13.88,0,20.56,7.16,20.62,7.22l2.35,2.62l1-3.38c0.02-0.07,1.86-5.14,5.53-8.6l-0.12-4.85C89.16,57.71,86.53,61.83,85.24,64.75z" fill="#78909C"/>
    <path d="M43.78,20.58c-0.31-0.65-0.96-0.5-1.58-0.2c-1.9,0.93-4.43,2.87-4.43,9.04l0,7.78 c0,1.37,0.4,2.66,1.18,1.61c0.68-0.92,2.47-2.6,2.47-9.25c0-4.33,0.16-6.03,1.44-7.37C43.01,22.03,44,21.05,43.78,20.58z" fill="#C9E3E6"/>
    <path d="M64.27,6.53c-1.85-0.17-3.44,0.4-4.68,1.34c-1.45,1.11-2.37,2.99-2.59,5.29 c-0.15,1.5-0.09,5.68,0.18,8.42c0.04,0.41,0.27,0.98,1.03,0.98c0.75,0,0.86-0.62,0.91-1.03c0.69-5.71,1.24-8.83,2.1-10.18 c1.03-1.61,2.87-2.44,3.62-2.81c0.29-0.15,0.74-0.21,0.74-0.93C65.57,6.98,65.05,6.61,64.27,6.53z" fill="#C9E3E6"/>
    <path d="M33.89,63.34c-2.72-4.35-6.73-6.1-11.6-5.04c-0.44,0.1-0.73,0.41-0.72,0.79 c0,0.27,0.18,0.61,0.66,0.7c1.22,0.23,3.39,0.62,5.57,1.47c2.46,0.96,4.06,2.3,4.98,3.01c0.21,0.16,0.73,0.42,1.05,0.05 C34.02,64.09,34.15,63.78,33.89,63.34z" fill="#C9E3E6"/>
  </g>
</svg>

<svg viewBox="0 0 128 128" xmlns="http://www.w3.org/2000/svg">
  <defs/>
  <path d="M114.51,61.13 C113.91,59.68 112.26,57.98 110.14,57.13 C106.36,55.61 100.47,54.4 93.49,60.04 L92.7,27.88 C92.7,24.43 91.51,21.38 89.15,19.54 C84.27,15.75 79.69,17.08 76.98,18.58 C75.41,19.45 74.35,21.04 74.35,21.04 C74.35,21.04 74.45,18.29 74.45,16.09 C74.45,13.89 74.29,4 63.99,4 C53.69,4 53.55,13.36 53.55,15.76 L53.63,20.69 C53.63,20.69 52.47,19.11 50.48,18.19 C47.68,16.91 43.37,16.02 38.83,19.54 C36.47,21.38 35.28,24.43 35.28,27.88 L34.5,60.04 C27.52,54.4 21.63,55.62 17.85,57.13 C15.73,57.98 13.92,59.98 13.48,61.13 C13,62.37 12.9,63.68 14.2,64.27 C17.48,65.76 23.54,70.25 26.56,81.72 C28.98,90.98 31.28,124 63.99,124 C96.7,124 99,90.98 101.43,81.72 C104.45,70.26 110.55,65.85 113.79,64.27 C114.99,63.69 115.11,62.58 114.51,61.13 Z" fill="#BDBDBD"/>
  <path d="M108.59,66.46 C105.45,68.73 103.49,72.55 101.75,79.08 C99.27,88.32 96.67,119.87 63.99,119.89 C31.31,119.87 28.71,88.32 26.23,79.08 C24.48,72.55 22.53,68.73 19.39,66.46 C16.4,64.3 15.13,65.09 13.23,63.27 C13.23,63.27 13.4,65.47 13.4,66.59 C13.4,67.7 15.34,68.39 16.84,69.48 C19.15,71.16 24.28,75.44 26.57,84.65 C28.86,93.86 31.3,123.98 63.98,124 C96.66,123.98 99.22,93.48 101.39,84.65 C103.56,75.82 108.81,71.17 111.12,69.48 C112.63,68.38 114.56,67.7 114.56,66.59 C114.56,65.48 114.73,63.27 114.73,63.27 C113.2,64.68 111.58,64.31 108.59,66.46 Z" fill="#546E7A"/>
  <path d="M77.34,62.29 C77.34,62.29 73.41,62.29 73.41,62.29 C73.41,57.55 73.41,31.8 73.41,26.18 C73.41,23.52 73.9,21.31 75.13,19.97 C77.68,17.2 82.03,17.09 82.03,17.09 C82.03,17.09 80.54,17.94 79.97,18.5 C78.5,19.94 77.89,21.84 77.52,23.75 C77.14,25.72 77.34,57.72 77.34,62.29 Z" fill="#78909C"/>
  <path d="M50.86,62.29 C50.86,62.29 54.79,62.29 54.79,62.29 C54.79,57.55 54.79,31.8 54.79,26.18 C54.79,23.52 54.3,21.31 53.07,19.97 C50.52,17.2 46.17,17.09 46.17,17.09 C46.17,17.09 47.66,17.94 48.23,18.5 C49.7,19.94 50.31,21.84 50.68,23.75 C51.05,25.72 50.86,57.72 50.86,62.29 Z" fill="#78909C"/>
  <path d="M63.99,102.86 C49.68,102.86 42.42,89.62 42.12,89.05 L41.75,88.36 L42.08,87.66 C42.35,87.09 48.83,73.78 63.99,73.78 C79.15,73.78 85.63,87.1 85.89,87.67 L86.22,88.37 L85.85,89.06 C85.56,89.62 78.3,102.86 63.99,102.86 Z" fill="#F5F5F5"/>
  <path d="M63.99,75.33 C78.35,75.33 84.5,88.32 84.5,88.32 C84.5,88.32 77.54,101.31 63.99,101.31 C50.44,101.31 43.47,88.33 43.47,88.33 C43.47,88.33 49.63,75.33 63.99,75.33 M63.99,72.25 C47.87,72.25 40.98,86.4 40.69,87.01 L40.02,88.42 L40.75,89.79 C41.07,90.39 48.76,104.41 63.98,104.41 C79.2,104.41 86.9,90.38 87.22,89.79 L87.95,88.42 L87.28,87.01 C87,86.41 80.11,72.25 63.99,72.25 L63.99,72.25 Z" fill="#78909C"/>
  <path d="M75.86,88.33 A11.87 11.87 0 1 1 52.12,88.33 A11.87 11.87 0 1 1 75.86,88.33 Z" fill="#5AC7F0"/>
  <path d="M69.52,88.33 A5.53 5.53 0 1 1 58.46,88.33 A5.53 5.53 0 1 1 69.52,88.33 Z" fill="#212121"/>
  <path d="M59.35,79.63 C59.97,79.84 60.28,80.59 60.19,81.24 C60.1,81.89 59.71,82.46 59.31,82.98 C58.88,83.54 58.42,84.09 57.93,84.6 C57.67,84.88 57.34,85.18 56.95,85.13 C56.54,85.08 56.29,84.67 56.15,84.29 C55.56,82.53 56.9,78.79 59.35,79.63 Z" fill="#FFFFFF"/>
  <path d="M63.99,101.32 C50.44,101.32 43.48,88.33 43.48,88.33 L40.07,88.33 L40.03,88.42 L40.76,89.79 C41.08,90.39 48.77,104.41 63.99,104.41 C79.21,104.41 86.9,90.38 87.22,89.79 L87.95,88.42 L87.91,88.33 L84.5,88.33 C84.5,88.33 77.54,101.32 63.99,101.32 Z" fill="#546E7A"/>
  <path d="M85.24,64.75 C81.92,62.22 74.95,58.25 63.99,58.25 C53.13,58.25 45.78,62.8 42.14,65.77 C41.16,62.6 39.42,59.7 34.56,57.24 L34.49,60.05 C38.05,64.29 39.03,69.7 39.04,69.77 L39.57,74.19 L42.48,70.82 C42.55,70.73 50.11,62.19 63.99,62.19 C77.87,62.19 84.55,69.35 84.61,69.41 L86.96,72.03 L87.96,68.65 C87.98,68.58 89.82,63.51 93.49,60.05 L93.37,55.2 C89.16,57.71 86.53,61.83 85.24,64.75 Z" fill="#78909C"/>
  <path d="M43.78,20.58 C43.47,19.93 42.82,20.08 42.2,20.38 C40.3,21.31 37.77,23.25 37.77,29.42 L37.77,37.2 C37.77,38.57 38.17,39.86 38.95,38.81 C39.63,37.89 41.42,36.21 41.42,29.56 C41.42,25.23 41.58,23.53 42.86,22.19 C43.01,22.03 44,21.05 43.78,20.58 Z" fill="#C9E3E6"/>
  <path d="M64.27,6.53 C62.42,6.36 60.83,6.93 59.59,7.87 C58.14,8.98 57.22,10.86 57,13.16 C56.85,14.66 56.91,18.84 57.18,21.58 C57.22,21.99 57.45,22.56 58.21,22.56 C58.96,22.56 59.07,21.94 59.12,21.53 C59.81,15.82 60.36,12.7 61.22,11.35 C62.25,9.74 64.09,8.91 64.84,8.54 C65.13,8.39 65.58,8.33 65.58,7.61 C65.57,6.98 65.05,6.61 64.27,6.53 Z" fill="#C9E3E6"/>
  <path d="M33.89,63.34 C31.17,58.99 27.16,57.24 22.29,58.3 C21.85,58.4 21.56,58.71 21.57,59.09 C21.57,59.36 21.75,59.7 22.23,59.79 C23.45,60.02 25.62,60.41 27.8,61.26 C30.26,62.22 31.86,63.56 32.78,64.27 C32.99,64.43 33.51,64.69 33.83,64.32 C34.02,64.09 34.15,63.78 33.89,63.34 Z" fill="#C9E3E6"/>
</svg>
